img/svg/congrats.svg

<svg fill="none" height="209" viewBox="0 0 344 209" width="344" xmlns="http://www.w3.org/2000/svg"><circle cx="318" cy="205" fill="#29c5d4" r="4"/><circle cx="37" cy="84" fill="#ffb636" r="4"/><circle cx="338" cy="117" fill="#ffb636" r="6"/><circle cx="297" cy="161" fill="#29c5d4" r="4"/><circle cx="57" cy="175" fill="#29c5d4" r="6"/><g fill="#f86544"><circle cx="305" cy="60" r="4"/><circle cx="4" cy="151" r="4"/><circle cx="196" cy="4" r="4"/></g><path d="m221.242 158.528-105.74 45.998c-3.556 1.048-6.587.349-8.977-2.038-2.448-2.445-3.089-5.415-2.04-8.967l46.05-107.1934z" fill="#f3eb23"/><path d="m106.7 203.012c-2.506-2.504-3.264-5.648-2.215-9.432l3.789-8.501.933-1.281c18.07-27.949 36.723-55.49 55.843-82.565l21.451 22.068c-9.677 7.162-23.608 19.971-41.795 38.487-18.187 18.4-30.836 32.141-38.006 41.224z" fill="#e5d723"/><path d="m197.577 110.957c9.909 10.073 17.079 19.564 21.626 28.356 4.546 8.851 5.304 14.906 2.39 18.283-3.556 3.144-9.793 2.446-18.595-2.038-8.861-4.541-18.245-11.761-28.271-21.776-9.968-9.957-17.255-19.389-21.801-28.24-4.547-8.8501-5.305-15.0221-2.39-18.5739 3.555-2.9695 9.793-2.2125 18.595 2.2126 8.918 4.4252 18.361 11.7033 28.446 21.7763z" fill="#93851d"/><path d="m150.593 149.736c-.233 2.096-1.399 3.144-3.497 3.144-2.099 0-3.148-1.048-3.148-3.144s1.049-3.144 3.148-3.144c2.098 0 3.264 1.048 3.497 3.144z" fill="#f7f9aa"/><path d="m230.569 180.77c.933.932 1.399 2.096 1.399 3.494 0 1.339-.466 2.503-1.399 3.493-.932.932-2.098 1.397-3.497 1.397s-2.507-.465-3.498-1.397c-.932-.932-1.399-2.096-1.399-3.493 0-1.34.467-2.504 1.399-3.494.933-.932 2.157-1.397 3.614-1.397 1.341 0 2.449.465 3.381 1.397zm28.096-70.628c-.932-.932-2.098-1.397-3.497-1.397s-2.506.465-3.497 1.397c-.933.932-1.399 2.096-1.399 3.494 0 1.397.466 2.503 1.399 3.493.932.932 2.098 1.398 3.497 1.398 1.341 0 2.507-.466 3.497-1.398.933-.931 1.399-2.154 1.399-3.61 0-1.339-.466-2.445-1.399-3.377z" fill="#ffb636"/><path d="m214.014 71.2472c-.641 3.1442-2.331 5.4732-5.071 6.9289-2.099 1.2809-4.314 1.8632-6.645 1.8632l-2.215-.2911c-1.866-.2329-3.498 0-4.722.6405-.641.4075-1.049 1.1645-1.282 2.2125-.234 1.0481 0 1.805.641 2.2126 1.049 1.0481 2.39 1.805 4.08 2.2126 3.556.6405 6.412 2.0379 8.511 4.2505 2.098 2.2126 2.973 4.7745 2.506 7.744-.408 2.9691-2.098 5.2401-5.071 6.9291-2.099 1.048-4.314 1.572-6.645 1.572h-2.215c-1.691-.408-3.265-.233-4.722.64-.641.233-1.107.816-1.399 1.864-.291 1.048 0 1.979.933 2.853.932.815 2.39 1.455 4.255 1.863 1.865.407 2.74 1.572 2.506 3.493-.233 1.864-1.282 2.97-3.147 3.145l-.641-.291c-3.381-.408-6.121-1.805-8.219-4.076-2.099-2.329-2.973-4.95-2.507-7.861.408-2.969 2.04-5.182 4.896-6.754 2.857-1.572 5.83-2.154 8.977-1.747 1.691.408 3.148.233 4.43-.64.816-.2331 1.341-.8154 1.574-1.747s-.116-1.8632-.932-2.8531c-.816-.9316-2.099-1.5139-3.789-1.7468h-.292c-3.147-.6404-5.829-2.0379-8.044-4.2504-2.215-2.2126-3.089-4.8328-2.681-7.8605.408-3.0278 1.982-5.2986 4.721-6.7542 2.74-1.4557 5.771-1.9797 9.152-1.5721 1.69.2329 3.148 0 4.43-.6405.816-.4076 1.341-1.1645 1.574-2.2126.233-1.048 0-1.805-.641-2.2126-1.05-1.048-2.507-1.805-4.43-2.2125-1.866-.4076-2.682-1.6304-2.39-3.61.291-1.9797 1.399-2.9696 3.322-2.9696 3.381.6405 6.179 2.0379 8.336 4.2505 2.39 2.0962 3.264 4.6581 2.856 7.6276z" fill="#bea4ff"/><path d="m127.219 96.75c0 1.4557-.525 2.7367-1.574 3.785-1.049 1.048-2.39 1.572-3.964 1.572s-2.914-.524-3.964-1.572c-1.049-1.0483-1.573-2.3875-1.573-3.9596s.524-2.9113 1.573-3.9594c1.05-1.048 2.39-1.5721 3.964-1.5721s2.915.5241 3.964 1.5721c1.049 1.1063 1.574 2.4455 1.574 4.134zm42.319 74.704c-1.865 0-3.439.582-4.605 1.747-1.166 1.164-1.749 2.678-1.749 4.599 0 1.864.583 3.436 1.749 4.6 1.166 1.165 2.682 1.747 4.605 1.747 1.865 0 3.439-.582 4.605-1.747 1.166-1.164 1.749-2.678 1.749-4.6 0-1.863-.583-3.435-1.749-4.599-1.224-1.165-2.74-1.747-4.605-1.747zm82.365-27.716c1.458 0 2.624-.64 3.498-1.863.816-2.329.291-4.076-1.574-5.357l-2.856-1.572c-4.605-3.377-11.367-5.939-20.227-7.744s-18.945 1.514-30.312 9.957c-1.865 1.455-2.04 3.144-.466 5.065 1.574 1.864 3.323 2.213 5.188.932 9.268-6.929 17.487-9.665 24.599-8.21 7.17 1.456 12.94 3.785 17.371 6.929l3.147 1.572c.467.175.991.291 1.632.291zm-24.657-53.6257c-1.865 0-3.439.6405-4.605 1.8632-1.165 1.281-1.748 2.7949-1.748 4.5416 0 1.805.583 3.3189 1.748 4.5999 1.166 1.281 2.682 1.863 4.605 1.863 1.866 0 3.44-.64 4.605-1.863 1.166-1.281 1.749-2.7949 1.749-4.5999s-.583-3.3188-1.749-4.5416c-1.165-1.2227-2.681-1.8632-4.605-1.8632z" fill="#f86544"/><path d="m119 53.4301c0 1.9797-1.049 2.9696-3.148 2.9696-2.098 0-3.147-.9899-3.147-2.9696 0-1.9796 1.049-3.0859 3.147-3.3188 2.099.1746 3.148 1.2809 3.148 3.3188zm47.682 43.32c-.641 0-1.166-.1164-1.574-.2911-1.865-1.2809-2.448-2.9113-1.574-5.0656l1.283-2.5037c1.282-2.3291 2.448-4.7163 3.614-7.2783 1.166-2.5037 1.749-5.1238 1.749-7.8605.408-6.5212-3.148-12.635-10.726-18.2829-1.69-1.4556-1.865-3.0859-.466-4.8909 1.34-1.805 2.973-2.0379 4.896-.8152 9.443 6.9289 14.107 14.9058 13.873 23.9308-.233 3.7847-.991 7.2783-2.39 10.4224-1.398 3.1442-2.681 5.8809-3.963 8.2099-.642.8151-1.05 1.6885-1.283 2.5037-.816 1.281-1.982 1.9214-3.439 1.9214zm68.784-33.7127c-2.099 0-3.148 1.0481-3.148 3.1442s1.049 3.1442 3.148 3.1442c2.098 0 3.264-1.0481 3.497-3.1442-.233-2.0961-1.399-3.1442-3.497-3.1442z" fill="#29c5d4"/></svg>

<svg width="344" height="209" viewBox="0 0 344 209" fill="none" xmlns="http://www.w3.org/2000/svg">
<circle cx="318" cy="205" r="4" fill="#29C5D4"/>
<circle cx="37" cy="84" r="4" fill="#FFB636"/>
<circle cx="338" cy="117" r="6" fill="#FFB636"/>
<circle cx="297" cy="161" r="4" fill="#29C5D4"/>
<circle cx="57" cy="175" r="6" fill="#29C5D4"/>
<circle cx="305" cy="60" r="4" fill="#F86544"/>
<circle cx="4" cy="151" r="4" fill="#F86544"/>
<circle cx="196" cy="4" r="4" fill="#F86544"/>
<path d="M221.242 158.528L115.502 204.526C111.946 205.574 108.915 204.875 106.525 202.488C104.077 200.043 103.436 197.073 104.485 193.521L150.535 86.3276L221.242 158.528Z" fill="#F3EB23"/>
<path d="M106.7 203.012C104.194 200.508 103.436 197.364 104.485 193.58L108.274 185.079L109.207 183.798C127.277 155.849 145.93 128.308 165.05 101.233L186.501 123.301C176.824 130.463 162.893 143.272 144.706 161.788C126.519 180.188 113.87 193.929 106.7 203.012Z" fill="#E5D723"/>
<path d="M197.577 110.957C207.486 121.03 214.656 130.521 219.203 139.313C223.749 148.164 224.507 154.219 221.593 157.596C218.037 160.74 211.8 160.042 202.998 155.558C194.137 151.017 184.753 143.797 174.727 133.782C164.759 123.825 157.472 114.393 152.926 105.542C148.379 96.6919 147.621 90.5199 150.536 86.9681C154.091 83.9986 160.329 84.7556 169.131 89.1807C178.049 93.6059 187.492 100.884 197.577 110.957Z" fill="#93851D"/>
<path d="M150.593 149.736C150.36 151.832 149.194 152.88 147.096 152.88C144.997 152.88 143.948 151.832 143.948 149.736C143.948 147.64 144.997 146.592 147.096 146.592C149.194 146.592 150.36 147.64 150.593 149.736Z" fill="#F7F9AA"/>
<path d="M230.569 180.77C231.502 181.702 231.968 182.866 231.968 184.264C231.968 185.603 231.502 186.767 230.569 187.757C229.637 188.689 228.471 189.154 227.072 189.154C225.673 189.154 224.565 188.689 223.574 187.757C222.642 186.825 222.175 185.661 222.175 184.264C222.175 182.924 222.642 181.76 223.574 180.77C224.507 179.838 225.731 179.373 227.188 179.373C228.529 179.373 229.637 179.838 230.569 180.77ZM258.665 110.142C257.733 109.21 256.567 108.745 255.168 108.745C253.769 108.745 252.662 109.21 251.671 110.142C250.738 111.074 250.272 112.238 250.272 113.636C250.272 115.033 250.738 116.139 251.671 117.129C252.603 118.061 253.769 118.527 255.168 118.527C256.509 118.527 257.675 118.061 258.665 117.129C259.598 116.198 260.064 114.975 260.064 113.519C260.064 112.18 259.598 111.074 258.665 110.142Z" fill="#FFB636"/>
<path d="M214.014 71.2472C213.373 74.3914 211.683 76.7204 208.943 78.1761C206.844 79.457 204.629 80.0393 202.298 80.0393L200.083 79.7482C198.217 79.5153 196.585 79.7482 195.361 80.3887C194.72 80.7962 194.312 81.5532 194.079 82.6012C193.845 83.6493 194.079 84.4062 194.72 84.8138C195.769 85.8619 197.11 86.6188 198.8 87.0264C202.356 87.6669 205.212 89.0643 207.311 91.2769C209.409 93.4895 210.284 96.0514 209.817 99.0209C209.409 101.99 207.719 104.261 204.746 105.95C202.647 106.998 200.432 107.522 198.101 107.522H195.886C194.195 107.114 192.621 107.289 191.164 108.162C190.523 108.395 190.057 108.978 189.765 110.026C189.474 111.074 189.765 112.005 190.698 112.879C191.63 113.694 193.088 114.334 194.953 114.742C196.818 115.149 197.693 116.314 197.459 118.235C197.226 120.099 196.177 121.205 194.312 121.38L193.671 121.089C190.29 120.681 187.55 119.284 185.452 117.013C183.353 114.684 182.479 112.063 182.945 109.152C183.353 106.183 184.985 103.97 187.841 102.398C190.698 100.826 193.671 100.244 196.818 100.651C198.509 101.059 199.966 100.884 201.248 100.011C202.064 99.7779 202.589 99.1956 202.822 98.264C203.055 97.3324 202.706 96.4008 201.89 95.4109C201.074 94.4793 199.791 93.897 198.101 93.6641H197.809C194.662 93.0237 191.98 91.6262 189.765 89.4137C187.55 87.2011 186.676 84.5809 187.084 81.5532C187.492 78.5254 189.066 76.2546 191.805 74.799C194.545 73.3433 197.576 72.8193 200.957 73.2269C202.647 73.4598 204.105 73.2269 205.387 72.5864C206.203 72.1788 206.728 71.4219 206.961 70.3738C207.194 69.3258 206.961 68.5688 206.32 68.1612C205.27 67.1132 203.813 66.3562 201.89 65.9487C200.024 65.5411 199.208 64.3183 199.5 62.3387C199.791 60.359 200.899 59.3691 202.822 59.3691C206.203 60.0096 209.001 61.407 211.158 63.6196C213.548 65.7158 214.422 68.2777 214.014 71.2472Z" fill="#BEA4FF"/>
<path d="M127.219 96.75C127.219 98.2057 126.694 99.4867 125.645 100.535C124.596 101.583 123.255 102.107 121.681 102.107C120.107 102.107 118.767 101.583 117.717 100.535C116.668 99.4867 116.144 98.1475 116.144 96.5754C116.144 95.0033 116.668 93.6641 117.717 92.616C118.767 91.568 120.107 91.0439 121.681 91.0439C123.255 91.0439 124.596 91.568 125.645 92.616C126.694 93.7223 127.219 95.0615 127.219 96.75ZM169.538 171.454C167.673 171.454 166.099 172.036 164.933 173.201C163.767 174.365 163.184 175.879 163.184 177.8C163.184 179.664 163.767 181.236 164.933 182.4C166.099 183.565 167.615 184.147 169.538 184.147C171.403 184.147 172.977 183.565 174.143 182.4C175.309 181.236 175.892 179.722 175.892 177.8C175.892 175.937 175.309 174.365 174.143 173.201C172.919 172.036 171.403 171.454 169.538 171.454ZM251.903 143.738C253.361 143.738 254.527 143.098 255.401 141.875C256.217 139.546 255.692 137.799 253.827 136.518L250.971 134.946C246.366 131.569 239.604 129.007 230.744 127.202C221.884 125.397 211.799 128.716 200.432 137.159C198.567 138.614 198.392 140.303 199.966 142.224C201.54 144.088 203.289 144.437 205.154 143.156C214.422 136.227 222.641 133.491 229.753 134.946C236.923 136.402 242.693 138.731 247.124 141.875L250.271 143.447C250.738 143.622 251.262 143.738 251.903 143.738ZM227.246 90.1123C225.381 90.1123 223.807 90.7528 222.641 91.9755C221.476 93.2565 220.893 94.7704 220.893 96.5171C220.893 98.3221 221.476 99.836 222.641 101.117C223.807 102.398 225.323 102.98 227.246 102.98C229.112 102.98 230.686 102.34 231.851 101.117C233.017 99.836 233.6 98.3221 233.6 96.5171C233.6 94.7121 233.017 93.1983 231.851 91.9755C230.686 90.7528 229.17 90.1123 227.246 90.1123Z" fill="#F86544"/>
<path d="M119 53.4301C119 55.4098 117.951 56.3997 115.852 56.3997C113.754 56.3997 112.705 55.4098 112.705 53.4301C112.705 51.4505 113.754 50.3442 115.852 50.1113C117.951 50.2859 119 51.3922 119 53.4301ZM166.682 96.7501C166.041 96.7501 165.516 96.6337 165.108 96.459C163.243 95.1781 162.66 93.5477 163.534 91.3934L164.817 88.8897C166.099 86.5606 167.265 84.1734 168.431 81.6114C169.597 79.1077 170.18 76.4876 170.18 73.7509C170.588 67.2297 167.032 61.1159 159.454 55.468C157.764 54.0124 157.589 52.3821 158.988 50.5771C160.328 48.7721 161.961 48.5392 163.884 49.7619C173.327 56.6908 177.991 64.6677 177.757 73.6927C177.524 77.4774 176.766 80.971 175.367 84.1151C173.969 87.2593 172.686 89.996 171.404 92.325C170.762 93.1401 170.354 94.0135 170.121 94.8287C169.305 96.1097 168.139 96.7501 166.682 96.7501ZM235.466 63.0374C233.367 63.0374 232.318 64.0855 232.318 66.1816C232.318 68.2777 233.367 69.3258 235.466 69.3258C237.564 69.3258 238.73 68.2777 238.963 66.1816C238.73 64.0855 237.564 63.0374 235.466 63.0374Z" fill="#29C5D4"/>
</svg>
